X: 1
T:Willie's Brogues
M:C|
L:1/8
Q:80
C:Angus Lawrie
S:Hornpipe
K:HP
|: {g}f3/4e/4|
{Gdc}d{g}d/2B/4{g}A/2{d}A/4{e}A3/4B/4|
{g}d3/4c/4d3/4e/4{g}fa/2f/4|  !
{gef}e{A}e{g}e3/4f/4{g}d3/4f/4|
{g}e3/4d/4{g}B/4d3/4{gef}e{g}f3/4e/4|
{Gdc}d{g}d3/4B/4{g}A3/4{d}A/4{e}A3/4B/4|  !
{g}d3/4c/4d3/4e/4{g}fa3/4f/4|
{gef}e{GAG}Aa3/4g/4{a}f/4e3/4|
{Gdc}d2{gdc}d:| [|  !
{g}f/2g/4|
a{g}a3/4g/4{a}f3/4g/4{a}f3/4e/4|
{g}d3/4e/4{g}f3/4d/4{gBd}B{e}A|  !
{Gdc}d{g}d3/4e/4{g}d3/4e/4{g}f3/4d/4|
{g}e3/4d/4{g}B/4d3/4{gef}e{g}f3/4g/4|
a{g}a3/4g/4{a}f3/4g/4{a}f3/4e/4|  !
{g}d3/4e/4{g}f3/4d/4{gBd}B{e}A3/4{d}B/4|
{gef}e{GAG}Aa3/4g/4{a}f/4e3/4|
{Gdc}d2{gdc}d|] [|  !
{g}f/2g/4|
a{g}a3/4g/4{a}f3/4g/4{a}f3/4e/4|
{g}d3/4e/4{g}f3/4d/4{gBd}B{e}A|  !
{Gdc}d{g}d3/4e/4{g}d3/4e/4{g}f3/4d/4|
{g}e3/4d/4{g}B/4d3/4{gef}e{g}f3/4e/4|
{Gdc}d{g}d3/4B/4{g}A3/4{d}A/4{e}A3/4B/4|  !
{g}d3/4c/4d3/4e/4{g}fa3/4f/4|
{gef}e{GAG}Aa3/4g/4{a}f/4e3/4|
{Gdc}d2{gdc}d|]  !
